src/assets/img/icons/ic4.svg

<?xml version="1.0" encoding="UTF-8"?>
<svg id="Layer_2" data-name="Layer 2" xmlns="http://www.w3.org/2000/svg" viewBox="0 0 17.92 14.48">
  <defs>
    <style>
      .cls-1 {
        fill: #bdc0cb;
      }
    </style>
  </defs>
  <g id="Layer_2-2" data-name="Layer 2">
    <g>
      <path class="cls-1" d="M15.36,0H2.57c-.74,0-1.33,.6-1.33,1.34V11.08c0,.73,.59,1.33,1.33,1.33H15.36c.73,0,1.33-.6,1.33-1.33V1.34c0-.74-.6-1.34-1.33-1.34Zm.39,11.08c0,.22-.18,.39-.39,.39H2.57c-.22,0-.39-.18-.39-.39V1.34c0-.22,.18-.4,.39-.4H15.36c.22,0,.39,.18,.39,.4V11.08Z"/>
      <path class="cls-1" d="M17.45,14.48H.47c-.26,0-.47-.21-.47-.47s.21-.47,.47-.47H17.45c.26,0,.47,.21,.47,.47s-.21,.47-.47,.47Z"/>
      <path class="cls-1" d="M12,9.31l-1.2-1.4c.52-.54,.81-1.28,.81-2.09,0-1.73-1.4-3.14-3.13-3.14s-3.14,1.4-3.14,3.14,1.4,3.13,3.14,3.13c.58,0,1.12-.16,1.59-.44l1.22,1.41c.08,.1,.22,.16,.36,.16,.1,0,.22-.04,.3-.11,.2-.17,.22-.47,.05-.66Zm-5.71-3.48c0-1.22,.98-2.2,2.2-2.2s2.19,.98,2.19,2.2c0,.69-.32,1.31-.82,1.71-.37,.3-.84,.48-1.37,.48-1.22,0-2.2-.98-2.2-2.19Z"/>
    </g>
  </g>
</svg>

<svg version="1.1"
	 xmlns="http://www.w3.org/2000/svg" xmlns:xlink="http://www.w3.org/1999/xlink" x="0px" y="0px" viewBox="0 0 17.9 14.5"
	 style="enable-background:new 0 0 17.9 14.5;" xml:space="preserve">
<g>
	<g>
		<path style="fill:#BDC0CB;" d="M15.4,0H2.6C1.8,0,1.2,0.6,1.2,1.3V11c0,0.7,0.6,1.3,1.3,1.3h12.8c0.7,0,1.3-0.6,1.3-1.3V1.3
			C16.7,0.6,16.1,0,15.4,0z M15.8,11.1c0,0.2-0.2,0.4-0.4,0.4H2.6c-0.2,0-0.4-0.2-0.4-0.4V1.3c0-0.2,0.2-0.4,0.4-0.4h12.8
			c0.2,0,0.4,0.2,0.4,0.4C15.8,1.3,15.8,11.1,15.8,11.1z"/>
		<path style="fill:#BDC0CB;" d="M17.5,14.5h-17C0.2,14.5,0,14.3,0,14s0.2-0.5,0.5-0.5h17c0.3,0,0.5,0.2,0.5,0.5
			S17.7,14.5,17.5,14.5z"/>
		<path style="fill:#BDC0CB;" d="M12,9.3l-1.2-1.4c0.5-0.5,0.8-1.3,0.8-2.1c0-1.7-1.4-3.1-3.1-3.1S5.3,4.1,5.3,5.8S6.7,9,8.5,9
			c0.6,0,1.1-0.2,1.6-0.4l1.2,1.4c0.1,0.1,0.2,0.2,0.4,0.2c0.1,0,0.2,0,0.3-0.1C12.2,9.8,12.2,9.5,12,9.3z M6.3,5.8
			c0-1.2,1-2.2,2.2-2.2s2.2,1,2.2,2.2c0,0.7-0.3,1.3-0.8,1.7C9.5,7.8,9,8,8.5,8C7.3,8,6.3,7,6.3,5.8z"/>
	</g>
</g>
</svg>
